src/lib/packages/icons/src/assets/line/medium.svg

<svg width="24" height="24" viewBox="0 0 24 24" fill="none" xmlns="http://www.w3.org/2000/svg">
<path d="M20.11 6.94C19.42 6.94 19 7.66001 18.77 8.67001C18.18 7.31001 17.23 6.44 16.11 6.44C14.78 6.44 13.69 7.65999 13.17 9.48999C12.24 7.57999 10.27 6.25 8.01001 6.25C4.84001 6.25 2.26001 8.83 2.26001 12C2.26001 15.17 4.84001 17.75 8.01001 17.75C10.28 17.75 12.24 16.43 13.17 14.51C13.7 16.34 14.78 17.56 16.11 17.56C17.23 17.56 18.18 16.69 18.77 15.33C19.01 16.34 19.42 17.06 20.11 17.06C21.47 17.06 21.75 14.31 21.75 12C21.75 9.69 21.46 6.94 20.11 6.94ZM8.00002 16.25C5.66002 16.25 3.75002 14.34 3.75002 12C3.75002 9.66 5.66002 7.75 8.00002 7.75C10.34 7.75 12.25 9.66 12.25 12C12.25 14.34 10.34 16.25 8.00002 16.25ZM16.11 16.06C15.27 16.06 14.32 14.32 14.32 12C14.32 9.68 15.26 7.94 16.11 7.94C16.96 7.94 17.9 9.68 17.9 12C17.9 14.32 16.96 16.06 16.11 16.06ZM20.11 14.28C20.03 13.68 19.97 12.92 19.97 12C19.97 11.08 20.03 10.31 20.11 9.72C20.19 10.32 20.25 11.08 20.25 12C20.25 12.92 20.19 13.69 20.11 14.28Z" fill="currentColor"/>
</svg>

<svg xmlns="http://www.w3.org/2000/svg" width="24" height="24" fill="none"><path fill="currentColor" d="M20.11 6.94c-.69 0-1.11.72-1.34 1.73-.59-1.36-1.54-2.23-2.66-2.23-1.33 0-2.42 1.22-2.94 3.05-.93-1.91-2.9-3.24-5.16-3.24-3.17 0-5.75 2.58-5.75 5.75s2.58 5.75 5.75 5.75c2.27 0 4.23-1.32 5.16-3.24.53 1.83 1.61 3.05 2.94 3.05 1.12 0 2.07-.87 2.66-2.23.24 1.01.65 1.73 1.34 1.73 1.36 0 1.64-2.75 1.64-5.06 0-2.31-.29-5.06-1.64-5.06ZM8 16.25A4.26 4.26 0 0 1 3.75 12 4.26 4.26 0 0 1 8 7.75 4.26 4.26 0 0 1 12.25 12 4.26 4.26 0 0 1 8 16.25Zm8.11-.19c-.84 0-1.79-1.74-1.79-4.06 0-2.32.94-4.06 1.79-4.06.85 0 1.79 1.74 1.79 4.06 0 2.32-.94 4.06-1.79 4.06Zm4-1.78c-.08-.6-.14-1.36-.14-2.28 0-.92.06-1.69.14-2.28.08.6.14 1.36.14 2.28 0 .92-.06 1.69-.14 2.28Z"/></svg>
